X: 31341
T: Paddy Mills' Fancy
R: reel
M: 4/4
K: Gmajor
|:DG G2 BGAG|FGAB cBcA|d2 eg fdcA|BcAF GFDC|
DG G2 BGAG|FGAB cBcA|d2 eg fdcA|BcAF G4:|
|:g2 dg gfdc|BG G2 FGAB|cBcA dcAG|FGAB cdef|
g2 dg gfdc|BG G2 FGAB|cBcA dcAG|FGAF G4:|

